svgs/sharp-thin/rotate-exclamation.svg

<svg xmlns="http://www.w3.org/2000/svg" viewBox="0 0 512 512"><!--! Font Awesome Pro 6.6.0 by @fontawesome - https://fontawesome.com License - https://fontawesome.com/license (Commercial License) Copyright 2024 Fonticons, Inc. --><path d="M256 48c65.3 0 123.6 30.1 161.7 77.2L456 176l-80 0-8 0 0 16 8 0 96 0 8 0 0-8 0-96 0-8-16 0 0 8 0 72.1-33.6-44.6s0 0 0 0l-.2-.2C389.2 64.5 326.4 32 256 32C155.4 32 70.3 98.3 42 189.6l15.3 4.7C83.5 109.6 162.6 48 256 48zm8 88l0-8-16 0 0 8 0 160 0 8 16 0 0-8 0-160zm8 200l-32 0 0 32 32 0 0-32zM32 424l0 8 16 0 0-8 0-74.2 35.2 46.8s0 0 0 0l.2 .2C124.4 447.5 187.2 480 257.6 480c100.6 0 185.7-66.3 214-157.6l-15.3-4.7C430.1 402.4 351 464 257.6 464c-65.3 0-123.6-30.1-161.7-77.2L57.7 336l78.3 0 8 0 0-16-8 0-96 0-8 0 0 8 0 96z"/></svg>

<svg xmlns="http://www.w3.org/2000/svg" viewBox="0 0 512 512"><!--! Font Awesome Pro 6.5.2 by @fontawesome - https://fontawesome.com License - https://fontawesome.com/license (Commercial License) Copyright 2024 Fonticons, Inc. --><path d="M256 48c65.3 0 123.6 30.1 161.7 77.2L456 176H376h-8v16h8 96 8v-8V88 80H464v8 72.1l-33.6-44.6 0 0-.2-.2C389.2 64.5 326.4 32 256 32C155.4 32 70.3 98.3 42 189.6l15.3 4.7C83.5 109.6 162.6 48 256 48zm8 88v-8H248v8V296v8h16v-8V136zm8 200H240v32h32V336zM32 424v8H48v-8V349.8l35.2 46.8 0 0 .2 .2C124.4 447.5 187.2 480 257.6 480c100.6 0 185.7-66.3 214-157.6l-15.3-4.7C430.1 402.4 351 464 257.6 464c-65.3 0-123.6-30.1-161.7-77.2L57.7 336H136h8V320h-8H40 32v8 96z"/></svg>
